public/svg/youtube.svg

<svg width="512" height="512" viewBox="0 0 512 512" fill="none" xmlns="http://www.w3.org/2000/svg">
<g clip-path="url(#clip0_1802_14)">
<path d="M435.2 0H76.8C34.3845 0 0 34.3845 0 76.8V435.2C0 477.615 34.3845 512 76.8 512H435.2C477.615 512 512 477.615 512 435.2V76.8C512 34.3845 477.615 0 435.2 0Z" fill="#4455DD"/>
<path d="M427 169C423 154 410 142 395 138C361 129 156 128 117 138C102 142 89 154 85 169C76 207 75 304 85 343C89 358 102 370 117 374C153 384 358 384 395 374C410 370 423 358 427 343C436 307 436 206 427 169Z" fill="white"/>
<path d="M220 203V309L313 256" fill="#4455DD"/>
</g>
<defs>
<clipPath id="clip0_1802_14">
<rect width="512" height="512" fill="white"/>
</clipPath>
</defs>
</svg>

<?xml version="1.0" encoding="utf-8"?>
<svg xmlns="http://www.w3.org/2000/svg" role="img" viewBox="0 0 512 512" fill="#ed1d24">
<rect width="512" height="512" rx="15%"/>
<path d="m427 169c-4-15-17-27-32-31-34-9-239-10-278 0-15 4-28 16-32 31-9 38-10 135 0 174 4 15 17 27 32 31 36 10 241 10 278 0 15-4 28-16 32-31 9-36 9-137 0-174" fill="#fff"/>
<path d="m220 203v106l93-53"/>
</svg>
